X:292
T: NUR NAERRISCH SEYN IST MEIN MANIER
N: Z0290
O: Europa, Mitteleuropa, Deutschland
R: Lyrisches Lied, Romanze, Trink - Lied
M: 2/4
L: 1/16
K: G
G2 | B2d2G2G2 | B2d2G2
Bd | g2d2cBAG | d4d2
G2 | B2d2G2G2 | B2d2G2
Bd | g2d2cBAG | d4d2
de | =f2d2e2c2 | edcBc2
ed | c2B2A2G2 | d4d2
de | =f2d2e2c2 | edcBc2
ed | c2B2A2G2 | d4d2
ef | g2c2B2A2 | G4G2

@@@ Tune index: 10050
